assets/images/logo.svg

<svg width="126" height="36" viewBox="0 0 126 36" fill="none" xmlns="http://www.w3.org/2000/svg">
<path d="M28.3443 4.56709V11.8025L19.3606 16.8211V6.76608L25.8194 3.21932C26.0704 3.07857 26.3546 3.00306 26.6446 3.00009C26.9345 2.99713 27.2204 3.06681 27.4744 3.20239C27.7284 3.33798 27.9419 3.53486 28.0944 3.77395C28.2468 4.01305 28.3329 4.28625 28.3443 4.56709Z" fill="#0EA5EA"/>
<path opacity="0.3" d="M10.3769 4.56709V11.8025L19.3606 16.8211V6.76608L12.9018 3.21932C12.6508 3.07857 12.3666 3.00306 12.0766 3.00009C11.7866 2.99713 11.5008 3.06681 11.2468 3.20239C10.9928 3.33798 10.7793 3.53486 10.6269 3.77395C10.4744 4.01305 10.3883 4.28625 10.3769 4.56709Z" fill="#0EA5EA"/>
<path d="M26.5442 32.9728L20.2627 29.3821L20.3639 19.0921L29.0934 24.0821L28.9674 31.4495C28.965 31.7373 28.8895 32.0216 28.7482 32.2748C28.6068 32.528 28.4045 32.7415 28.1607 32.8948C27.917 33.048 27.6401 33.1357 27.3568 33.1494C27.0736 33.163 26.7937 33.1022 26.5442 32.9728Z" fill="#0EA5EA"/>
<path opacity="0.3" d="M35.4609 17.374L29.1793 13.7833L20.3639 19.0921L29.0934 24.0821L35.3779 20.2349C35.6246 20.0868 35.8313 19.8775 35.9777 19.6273C36.1242 19.377 36.2056 19.0943 36.2139 18.8065C36.2223 18.5187 36.1573 18.2356 36.0254 17.9846C35.8934 17.7336 35.699 17.5233 35.4609 17.374Z" fill="#0EA5EA"/>
<path opacity="0.3" d="M11.6704 32.9728L17.9519 29.3821L17.8507 19.0921L9.12119 24.0821L9.24727 31.4495C9.24964 31.7373 9.32514 32.0216 9.46646 32.2748C9.60779 32.528 9.81013 32.7415 10.0539 32.8948C10.2977 33.048 10.5746 33.1357 10.8578 33.1494C11.141 33.163 11.4209 33.1022 11.6704 32.9728Z" fill="#0EA5EA"/>
<path d="M2.75377 17.374L9.03532 13.7833L17.8507 19.0921L9.12119 24.0821L2.83673 20.2349C2.58997 20.0868 2.38335 19.8775 2.23688 19.6273C2.09041 19.377 2.00906 19.0943 2.00071 18.8065C1.99237 18.5187 2.05731 18.2356 2.18925 17.9846C2.32118 17.7336 2.51564 17.5233 2.75377 17.374Z" fill="#0EA5EA"/>
<path d="M71.47 7L66.28 28.15H59.05L56.14 15.19L53.17 28.15H45.94L40.81 7H47.17L49.63 21.46L52.96 7H59.41L62.65 21.34L65.11 7H71.47Z" fill="#D8E6FB"/>
<path d="M79.8452 14.29C80.5052 13.33 81.3052 12.57 82.2452 12.01C83.1852 11.45 84.1952 11.17 85.2752 11.17V17.44H83.6252C82.3452 17.44 81.3952 17.69 80.7752 18.19C80.1552 18.69 79.8452 19.56 79.8452 20.8V28.15H73.9652V11.32H79.8452V14.29Z" fill="#D8E6FB"/>
<path d="M103.463 19.54C103.463 20 103.433 20.46 103.373 20.92H92.2431C92.3031 21.84 92.5531 22.53 92.9931 22.99C93.4531 23.43 94.0331 23.65 94.7331 23.65C95.7131 23.65 96.4131 23.21 96.8331 22.33H103.103C102.843 23.49 102.333 24.53 101.573 25.45C100.833 26.35 99.8931 27.06 98.7531 27.58C97.6131 28.1 96.3531 28.36 94.9731 28.36C93.3131 28.36 91.8331 28.01 90.5331 27.31C89.2531 26.61 88.2431 25.61 87.5031 24.31C86.7831 23.01 86.4231 21.48 86.4231 19.72C86.4231 17.96 86.7831 16.44 87.5031 15.16C88.2231 13.86 89.2231 12.86 90.5031 12.16C91.8031 11.46 93.2931 11.11 94.9731 11.11C96.6331 11.11 98.1031 11.45 99.3831 12.13C100.663 12.81 101.663 13.79 102.383 15.07C103.103 16.33 103.463 17.82 103.463 19.54ZM97.4631 18.07C97.4631 17.35 97.2231 16.79 96.7431 16.39C96.2631 15.97 95.6631 15.76 94.9431 15.76C94.2231 15.76 93.6331 15.96 93.1731 16.36C92.7131 16.74 92.4131 17.31 92.2731 18.07H97.4631Z" fill="#D8E6FB"/>
<path d="M116.879 11.17C118.819 11.17 120.359 11.82 121.499 13.12C122.639 14.4 123.209 16.14 123.209 18.34V28.15H117.329V19.12C117.329 18.16 117.079 17.41 116.579 16.87C116.079 16.31 115.409 16.03 114.569 16.03C113.689 16.03 112.999 16.31 112.499 16.87C111.999 17.41 111.749 18.16 111.749 19.12V28.15H105.869V11.32H111.749V13.72C112.269 12.96 112.969 12.35 113.849 11.89C114.729 11.41 115.739 11.17 116.879 11.17Z" fill="#D8E6FB"/>
</svg>

<?xml version="1.0" encoding="utf-8"?>
<!-- Generator: Adobe Illustrator 26.3.1, SVG Export Plug-In . SVG Version: 6.00 Build 0)  -->
<svg version="1.1" id="Layer_1" xmlns="http://www.w3.org/2000/svg" xmlns:xlink="http://www.w3.org/1999/xlink" x="0px" y="0px"
	 viewBox="0 0 126 36" style="enable-background:new 0 0 126 36;" xml:space="preserve">
<style type="text/css">
	.st0{fill:#0EA5EA;}
	.st1{opacity:0.3;fill:#0EA5EA;enable-background:new    ;}
	.st2{fill:#91D6E6;}
	.st3{font-family:'Noteworthy-Bold';}
	.st4{font-size:18px;}
</style>
<path class="st0" d="M28.3,4.6v7.2l-9,5V6.8l6.5-3.5C26.1,3.1,26.4,3,26.6,3c0.3,0,0.6,0.1,0.8,0.2c0.3,0.1,0.5,0.3,0.6,0.6
	C28.2,4,28.3,4.3,28.3,4.6z"/>
<path class="st1" d="M10.4,4.6v7.2l9,5V6.8l-6.5-3.5C12.7,3.1,12.4,3,12.1,3c-0.3,0-0.6,0.1-0.8,0.2c-0.3,0.1-0.5,0.3-0.6,0.6
	C10.5,4,10.4,4.3,10.4,4.6z"/>
<path class="st0" d="M26.5,33l-6.3-3.6l0.1-10.3l8.7,5L29,31.4c0,0.3-0.1,0.6-0.2,0.8c-0.1,0.3-0.3,0.5-0.6,0.6
	c-0.2,0.2-0.5,0.2-0.8,0.3C27.1,33.2,26.8,33.1,26.5,33z"/>
<path class="st1" d="M35.5,17.4l-6.3-3.6l-8.8,5.3l8.7,5l6.3-3.8c0.2-0.1,0.5-0.4,0.6-0.6c0.1-0.3,0.2-0.5,0.2-0.8
	c0-0.3-0.1-0.6-0.2-0.8C35.9,17.7,35.7,17.5,35.5,17.4z"/>
<path class="st1" d="M11.7,33l6.3-3.6l-0.1-10.3l-8.7,5l0.1,7.4c0,0.3,0.1,0.6,0.2,0.8c0.1,0.3,0.3,0.5,0.6,0.6
	c0.2,0.2,0.5,0.2,0.8,0.3C11.1,33.2,11.4,33.1,11.7,33z"/>
<path class="st0" d="M2.8,17.4L9,13.8l8.8,5.3l-8.7,5l-6.3-3.8c-0.2-0.1-0.5-0.4-0.6-0.6C2.1,19.4,2,19.1,2,18.8
	c0-0.3,0.1-0.6,0.2-0.8C2.3,17.7,2.5,17.5,2.8,17.4z"/>
<text transform="matrix(1 0 0 1 40.866 24.0821)" class="st2 st3 st4">PlayPulse</text>
</svg>
